app/assets/images/heroicons/micro/envelope.svg

<svg width="16" height="16" viewBox="0 0 16 16" fill="none" xmlns="http://www.w3.org/2000/svg">
<path d="M2.5 3C1.67157 3 1 3.67157 1 4.5V5.29294C1.02568 5.30204 1.05113 5.31264 1.07623 5.32476L7.67411 8.50994C7.88011 8.60939 8.12023 8.60939 8.32623 8.50994L14.9241 5.32476C14.9491 5.31269 14.9744 5.30214 15 5.29306V4.5C15 3.67157 14.3284 3 13.5 3H2.5Z" fill="#333333"/>
<path d="M15 6.95377L8.97836 9.86077C8.36036 10.1591 7.63999 10.1591 7.02199 9.86077L1 6.9536V11.5C1 12.3284 1.67157 13 2.5 13H13.5C14.3284 13 15 12.3284 15 11.5V6.95377Z" fill="#333333"/>
</svg>

<svg xmlns="http://www.w3.org/2000/svg" viewBox="0 0 16 16" fill="currentColor" aria-hidden="true" data-slot="icon">
  <path d="M2.5 3A1.5 1.5 0 0 0 1 4.5v.793c.026.009.051.02.076.032L7.674 8.51c.206.1.446.1.652 0l6.598-3.185A.755.755 0 0 1 15 5.293V4.5A1.5 1.5 0 0 0 13.5 3h-11Z"/>
  <path d="M15 6.954 8.978 9.86a2.25 2.25 0 0 1-1.956 0L1 6.954V11.5A1.5 1.5 0 0 0 2.5 13h11a1.5 1.5 0 0 0 1.5-1.5V6.954Z"/>
</svg>
